resources/svg/messenger.svg

<svg xmlns="http://www.w3.org/2000/svg" viewBox="0 0 15 15" fill="currentColor"><path fill-rule="evenodd" clip-rule="evenodd" d="M0 7.19565C0 3.20099 3.37858 0 7.5 0C11.6214 0 15 3.20099 15 7.19565C15 11.1903 11.6214 14.3913 7.5 14.3913C6.54087 14.3913 5.62342 14.2175 4.77908 13.9024L2.5383 14.9527C2.36187 15.0354 2.15345 15.0081 2.00431 14.8827C1.85516 14.7573 1.79246 14.5567 1.84365 14.3687L2.36957 12.437C0.917685 11.1288 0 9.26893 0 7.19565ZM8.51642 8.63725L11.8202 5.88411L11.18 5.11589L8.48376 7.36275L6.5073 5.8804L2.70947 8.59313L3.29071 9.40687L6.49289 7.1196L8.51642 8.63725Z" fill="black"/></svg>

<svg xmlns="http://www.w3.org/2000/svg" viewBox="0 0 15 15" fill="currentColor"><path fill-rule="evenodd" clip-rule="evenodd" d="M0 7.196C0 3.2 3.379 0 7.5 0S15 3.201 15 7.196c0 3.994-3.379 7.195-7.5 7.195a7.77 7.77 0 01-2.72-.489l-2.242 1.05a.5.5 0 01-.694-.583l.526-1.932C.918 11.129 0 9.269 0 7.196zm8.516 1.441l3.304-2.753-.64-.768-2.696 2.247L6.507 5.88 2.71 8.593l.582.814L6.493 7.12l2.023 1.517z" fill="currentColor"/></svg>
